src/_icons/cn-icbc.svg

---
version: "0.0.4"
---
<svg>
  <path d="M23.999 1.5c12.427 0 22.501 10.074 22.501 22.5s-10.074 22.5 -22.501 22.5c-12.426 0 -22.499 -10.074 -22.499 -22.5c0 -12.425 10.073 -22.5 22.499 -22.5zm0 3.486c-10.5 0 -19.012 8.511 -19.012 19.013c0 10.501 8.513 19.013 19.013 19.013c10.5 0 19.014 -8.512 19.014 -19.013c0 -10.502 -8.514 -19.013 -19.014 -19.013zm12.134 6.901v10.376h-6.887v3.458h6.887v10.374h-11.213v-3.455h7.754v-3.458h-6.906v-10.378h6.906v-3.459h-7.754v-3.458h11.213zm-12.951 -.006v3.454h-7.78v3.46h6.907v10.375h-6.907v3.46h7.78v3.458h-11.238v-10.375h6.889v-3.46h-6.89v-10.371h11.239z" />
</svg>

<svg>
  <path d="M23.999 1.5C36.426 1.5 46.5 11.574 46.5 24S36.426 46.5 23.999 46.5C11.573 46.5 1.5 36.426 1.5 24c0-12.425 10.073-22.5 22.499-22.5Zm0 3.486c-10.5 0-19.012 8.511-19.012 19.013C4.987 34.5 13.5 43.012 24 43.012c10.5 0 19.014-8.512 19.014-19.013C43.014 13.497 34.5 4.986 24 4.986Zm12.134 6.901v10.376h-6.887v3.458h6.887v10.374H24.92V32.64h7.754v-3.458h-6.906V18.804h6.906v-3.459H24.92v-3.458h11.213Zm-12.951-.006v3.454h-7.78v3.46h6.907V29.17h-6.907v3.46h7.78v3.458H11.944V25.713h6.889v-3.46h-6.89V11.882h11.239Z"/>
</svg>
